src/_assets/sidebar/treasury-proposal-icon.svg

<svg width="24" height="24" viewBox="0 0 24 24" fill="none" xmlns="http://www.w3.org/2000/svg">
<path d="M19.1979 3H4.8C4.32284 3.00074 3.86543 3.19062 3.52803 3.52803C3.19063 3.86543 3.00074 4.32284 3 4.8V19.1979C3 19.6755 3.18957 20.1335 3.52708 20.4714C3.86458 20.8093 4.32242 20.9994 4.8 21H19.1979C19.6751 20.9994 20.1326 20.8096 20.4701 20.4722C20.8075 20.1347 20.9973 19.6772 20.9979 19.2V4.8C20.9971 4.32284 20.8073 3.86543 20.4699 3.52803C20.1325 3.19062 19.6751 3.00074 19.1979 3ZM5.36109 19.4531C5.14403 19.4531 4.93586 19.3669 4.78237 19.2134C4.62888 19.0599 4.54266 18.8518 4.54266 18.6347V5.36109C4.54266 5.14403 4.62888 4.93586 4.78237 4.78237C4.93586 4.62888 5.14403 4.54266 5.36109 4.54266H18.6368C18.8535 4.54321 19.0611 4.62969 19.2142 4.78312C19.3672 4.93654 19.4531 5.1444 19.4531 5.36109V18.6368C19.4526 18.8531 19.3664 19.0604 19.2134 19.2134C19.0604 19.3664 18.8531 19.4526 18.6368 19.4531H5.36109Z" fill="#485F7D"/>
<path d="M12 6.63727C10.9395 6.63713 9.90276 6.95147 9.0209 7.54054C8.13904 8.12961 7.45166 8.96696 7.0457 9.94669C6.63973 10.9264 6.5334 12.0045 6.74016 13.0447C6.94692 14.0848 7.45748 15.0403 8.20727 15.7903C8.95707 16.5403 9.91242 17.0511 10.9525 17.2582C11.9926 17.4652 13.0708 17.3591 14.0506 16.9534C15.0304 16.5477 15.868 15.8606 16.4573 14.9789C17.0466 14.0972 17.3612 13.0605 17.3613 12C17.3611 10.578 16.7963 9.2143 15.7909 8.20868C14.7855 7.20305 13.422 6.63782 12 6.63727Z" fill="#485F7D"/>
<path d="M16.1716 10.9066L14.3133 9.04688C14.2572 8.99111 14.1814 8.95977 14.1023 8.95969H9.89555C9.81648 8.95977 9.74066 8.99111 9.68461 9.04688L7.82625 10.9066C7.75557 10.9773 7.71505 11.0726 7.71321 11.1725C7.71138 11.2725 7.74837 11.3692 7.81641 11.4424L11.8861 15.8313C11.9006 15.8468 11.918 15.8591 11.9375 15.8675C11.9569 15.8759 11.9778 15.8802 11.9989 15.8802C12.0201 15.8802 12.041 15.8759 12.0604 15.8675C12.0799 15.8591 12.0973 15.8468 12.1118 15.8313L16.1815 11.4424C16.2495 11.3692 16.2865 11.2725 16.2847 11.1725C16.2828 11.0726 16.2423 10.9773 16.1716 10.9066ZM15.567 11.4586L12.27 15.0537C12.2556 15.0689 12.237 15.0795 12.2166 15.0841C12.1962 15.0887 12.1749 15.0872 12.1554 15.0796C12.1358 15.0721 12.119 15.0589 12.107 15.0418C12.095 15.0246 12.0883 15.0043 12.0879 14.9834V9.44133C12.0879 9.42268 12.0953 9.4048 12.1085 9.39161C12.1217 9.37842 12.1396 9.37102 12.1582 9.37102H13.8394C13.9045 9.37053 13.9672 9.3958 14.0138 9.44133L15.5606 11.0044C15.62 11.0647 15.6538 11.1456 15.655 11.2302C15.6562 11.3148 15.6246 11.3967 15.567 11.4586Z" fill="white"/>
</svg>

<svg xmlns="http://www.w3.org/2000/svg" width="24" height="24" fill="none"><path fill="#485F7D" d="M19.198 3H4.8A1.803 1.803 0 0 0 3 4.8v14.398A1.8 1.8 0 0 0 4.8 21h14.398a1.803 1.803 0 0 0 1.8-1.8V4.8a1.803 1.803 0 0 0-1.8-1.8M5.36 19.453a.82.82 0 0 1-.818-.818V5.36a.82.82 0 0 1 .818-.818h13.276a.82.82 0 0 1 .816.818v13.276a.82.82 0 0 1-.816.816z"/><path fill="#485F7D" d="M12 6.637a5.362 5.362 0 1 0-.001 10.724A5.362 5.362 0 0 0 12 6.637"/><path fill="#fff" d="m16.172 10.907-1.859-1.86a.3.3 0 0 0-.21-.087H9.895a.3.3 0 0 0-.211.087l-1.859 1.86a.386.386 0 0 0-.01.535l4.07 4.39a.15.15 0 0 0 .174.035.2.2 0 0 0 .052-.036l4.07-4.389a.386.386 0 0 0-.01-.535m-.605.552-3.297 3.595a.106.106 0 0 1-.182-.07V9.44a.07.07 0 0 1 .07-.07h1.681c.066 0 .128.025.175.07l1.547 1.563a.33.33 0 0 1 .006.455"/></svg>
